source/img/icon_telephone.svg

<svg width="19" height="17" viewBox="0 0 19 17" fill="none" xmlns="http://www.w3.org/2000/svg">
<path fill-rule="evenodd" clip-rule="evenodd" d="M9.50001 1.08615C6.70357 1.08615 3.90039 1.55882 2.88328 2.50093C2.0394 3.28252 1.7581 4.66329 1.66328 5.53753C1.66328 5.53753 1.65021 5.62393 1.65021 5.66109C1.65021 6.00391 1.94451 6.27887 2.30433 6.27887C2.34684 6.27887 3.92008 6.15837 4.86857 6.08425C4.8914 6.08112 4.9144 6.07806 4.93722 6.07191C5.29049 6.0627 5.57511 5.7908 5.57511 5.45413L5.57828 4.237C5.57828 3.86014 5.9022 3.55737 6.30126 3.55737H12.6987C13.0978 3.55737 13.4218 3.86011 13.4218 4.237L13.425 5.45413C13.425 5.7908 13.7096 6.0627 14.0628 6.07191C14.0855 6.0781 14.1085 6.08112 14.1316 6.08425C15.0802 6.15834 16.6534 6.27887 16.6957 6.27887C17.0554 6.27887 17.3499 6.00391 17.3499 5.66109C17.3499 5.62393 17.3369 5.53753 17.3369 5.53753C17.242 4.66329 16.961 3.28255 16.1171 2.50093C15.0996 1.55882 12.2965 1.08615 9.50001 1.08615ZM9.50001 9.11773C8.77717 9.11773 8.1917 9.67064 8.1917 10.3533C8.1917 11.036 8.77717 11.5889 9.50001 11.5889C10.2229 11.5889 10.8083 11.036 10.8083 10.3533C10.8083 9.67064 10.2229 9.11773 9.50001 9.11773ZM8.51879 6.33752V5.56528C8.51879 5.13902 8.15242 4.79304 7.70113 4.79304C7.24983 4.79304 6.88346 5.13905 6.88346 5.56528V6.33752L2.47101 10.7889C2.16695 11.07 1.9772 11.4622 1.9772 11.8948V13.1335C1.9772 13.8162 2.5627 14.3691 3.28551 14.3691H3.6126V15.1414C3.6126 15.5677 3.97901 15.9136 4.43031 15.9136C4.8816 15.9136 5.24798 15.5677 5.24798 15.1414V14.3691H13.752V15.1414C13.752 15.5677 14.1183 15.9136 14.5698 15.9136C15.0211 15.9136 15.3874 15.5677 15.3874 15.1414V14.3691H15.7145C16.4373 14.3691 17.0228 13.8162 17.0228 13.1335V11.8948C17.0228 11.4622 16.833 11.07 16.5289 10.7889L12.1167 6.33752V5.56528C12.1167 5.13902 11.7502 4.79304 11.2989 4.79304C10.8476 4.79304 10.4813 5.13905 10.4813 5.56528V6.33752H8.51879ZM9.50001 7.8821C10.9457 7.8821 12.1167 8.98799 12.1167 10.3533C12.1167 11.7187 10.9457 12.8247 9.50001 12.8247C8.05432 12.8247 6.88342 11.7187 6.88342 10.3533C6.88342 8.98795 8.05432 7.8821 9.50001 7.8821Z" fill="#FFD74B"/>
</svg>

<svg focusable="false" role="img" width="19" height="17" fill="none" xmlns="http://www.w3.org/2000/svg"><path fill-rule="evenodd" clip-rule="evenodd" d="M9.5 1.086c-2.796 0-5.6.473-6.617 1.415-.844.782-1.125 2.162-1.22 3.037 0 0-.013.086-.013.123 0 .343.295.618.654.618.043 0 1.616-.12 2.565-.195.022-.003.045-.006.068-.012.353-.01.638-.281.638-.618l.003-1.217c0-.377.324-.68.723-.68H12.7c.399 0 .723.303.723.68l.003 1.217c0 .337.285.609.638.618.022.006.045.01.069.012.948.074 2.521.195 2.564.195.36 0 .654-.275.654-.618 0-.037-.013-.123-.013-.123-.095-.875-.376-2.255-1.22-3.037-1.017-.942-3.82-1.415-6.617-1.415zm0 8.032c-.723 0-1.308.553-1.308 1.235 0 .683.585 1.236 1.308 1.236.723 0 1.308-.553 1.308-1.236 0-.682-.585-1.235-1.308-1.235zm-.981-2.78v-.773c0-.426-.367-.772-.818-.772-.451 0-.818.346-.818.772v.773l-4.412 4.45a1.504 1.504 0 00-.494 1.107v1.239c0 .682.586 1.235 1.309 1.235h.327v.772c0 .427.366.773.817.773.452 0 .818-.346.818-.773v-.772h8.504v.772c0 .427.366.773.818.773.451 0 .817-.346.817-.773v-.772h.327c.723 0 1.309-.553 1.309-1.236v-1.238c0-.433-.19-.825-.494-1.106l-4.412-4.451v-.773c0-.426-.367-.772-.818-.772-.451 0-.818.346-.818.772v.773H8.52zM9.5 7.882c1.446 0 2.617 1.106 2.617 2.471 0 1.366-1.171 2.472-2.617 2.472s-2.617-1.106-2.617-2.472c0-1.365 1.171-2.47 2.617-2.47z" fill="#FFD74B"/></svg>
